packages/tokens/icons/levelUp/size64Px.svg

<svg viewBox="0 0 64 64" fill="none" xmlns="http://www.w3.org/2000/svg" width="1em" height="1em"><path d="M4.5 55.5L4.5 53.5C4.5 47.9772 8.97715 43.5 14.5 43.5L29.5 43.5C35.0228 43.5 39.5 47.9772 39.5 53.5V55.5" stroke="currentColor" stroke-linecap="round"/><path d="M22 38.5C27.5228 38.5 32 34.0228 32 28.5C32 22.9772 27.5228 18.5 22 18.5C16.4772 18.5 12 22.9772 12 28.5C12 34.0228 16.4772 38.5 22 38.5Z" stroke="currentColor" stroke-linecap="round" stroke-linejoin="round"/><path d="M39.5 17.9997L48.0858 9.41391C48.8668 8.63286 50.1332 8.63286 50.9142 9.41391L59.5 17.9997M39.5 26.9997L48.0858 18.4139C48.8668 17.6329 50.1332 17.6329 50.9142 18.4139L59.5 26.9997M39.5 35.9997L48.0858 27.4139C48.8668 26.6329 50.1332 26.6329 50.9142 27.4139L59.5 35.9997" stroke="currentColor" stroke-linecap="round"/></svg>

<svg xmlns="http://www.w3.org/2000/svg" fill="none" viewBox="0 0 64 64" width="1em" height="1em"><path stroke="currentColor" stroke-linecap="round" d="M4.5 55.5v-2c0-5.523 4.477-10 10-10h15c5.523 0 10 4.477 10 10v2"/><path stroke="currentColor" stroke-linecap="round" stroke-linejoin="round" d="M22 38.5c5.523 0 10-4.477 10-10s-4.477-10-10-10-10 4.477-10 10 4.477 10 10 10Z"/><path stroke="currentColor" stroke-linecap="round" d="m39.5 18 8.586-8.586a2 2 0 0 1 2.828 0L59.5 18m-20 9 8.586-8.586a2 2 0 0 1 2.828 0L59.5 27m-20 9 8.586-8.586a2 2 0 0 1 2.828 0L59.5 36"/></svg>
